X:2
%
T:Mrs. Casey [1]
M:6/8
L:1/8
R:Jig
Q:"Moderato"
B:Thomas Wilson - A Companion to the Ball Room (London, 1816, p. 89)
Z:AK/Fiddler's Companion
K:C
e/d/|c2A ABA|G2G G2G|A2A A2G|f3 e2d|
c2A ABA|G2G G2G|A2A A2G|c3 e2!Fine!||
G|c2d e2f|g2a g2e|c2d e2f|g3 efg|
a2f g2e|f2e d2c|A2A ABA|f3 e2d!D.C.!||

